libs/icons/src/svg/attach.svg

<svg width="16" height="16" viewBox="0 0 16 16" fill="none" xmlns="http://www.w3.org/2000/svg">
<g clip-path="url(#clip0_3_3697)">
<path fill-rule="evenodd" clip-rule="evenodd" d="M11.6619 2.60474C10.7223 1.66509 9.27772 1.66509 8.33807 2.60474L3.13807 7.80474C1.73175 9.21105 1.73175 11.5889 3.13807 12.9953C4.54439 14.4016 6.92228 14.4016 8.3286 12.9953L14.1953 7.12859C14.4556 6.86824 14.8777 6.86824 15.1381 7.12859C15.3984 7.38894 15.3984 7.81105 15.1381 8.0714L9.2714 13.9381C7.34439 15.8651 4.12228 15.8651 2.19526 13.9381C0.268246 12.0111 0.268246 8.78894 2.19526 6.86193L7.39526 1.66193C8.85561 0.201578 11.1444 0.201578 12.6047 1.66193C14.0651 3.12228 14.0651 5.41105 12.6047 6.8714L12.6014 6.8747L12.6014 6.87469L7.80474 11.6047C7.80414 11.6053 7.80354 11.6059 7.80294 11.6065C6.89441 12.5131 5.39537 12.5538 4.51632 11.5924C3.62022 10.6832 3.58326 9.19306 4.53991 8.31728L8.52859 4.32859C8.78894 4.06824 9.21105 4.06824 9.4714 4.32859C9.73175 4.58894 9.73175 5.01105 9.4714 5.2714L5.4714 9.2714C5.46314 9.27967 5.45466 9.28771 5.44598 9.29553C5.08814 9.61758 5.05051 10.241 5.4714 10.6619C5.47967 10.6702 5.48771 10.6787 5.49553 10.6874C5.81759 11.0452 6.44104 11.0828 6.86193 10.6619L6.86523 10.6586L6.86524 10.6586L11.6635 5.92703C12.6016 4.98734 12.6011 3.54387 11.6619 2.60474Z" fill="#202327"/>
</g>
<defs>
<clipPath id="clip0_3_3697">
<rect width="16" height="16" fill="white"/>
</clipPath>
</defs>
</svg>

<svg xmlns="http://www.w3.org/2000/svg" viewBox="0 0 16 16" class="sageicon"><path fill-rule="evenodd" d="M11.662 2.605c-.94-.94-2.384-.94-3.324 0l-5.2 5.2c-1.406 1.406-1.406 3.784 0 5.19 1.406 1.407 3.784 1.407 5.19 0l5.867-5.866a.667.667 0 1 1 .943.942l-5.867 5.867c-1.927 1.927-5.149 1.927-7.076 0-1.927-1.927-1.927-5.15 0-7.076l5.2-5.2a3.645 3.645 0 0 1 5.21 0 3.645 3.645 0 0 1 0 5.21l-.004.003-4.796 4.73-.002.002c-.909.906-2.408.947-3.287-.015-.896-.909-.933-2.399.024-3.275L8.529 4.33a.667.667 0 1 1 .942.942l-4 4a.665.665 0 0 1-.025.025c-.358.322-.395.945.025 1.366a.683.683 0 0 1 .025.025c.322.358.945.396 1.366-.025l.003-.003 4.799-4.732c.938-.94.937-2.383-.002-3.322Z"/></svg>
